X: 23
T: Cliffs Of Moher, The
Z: birlibirdie
S: https://thesession.org/tunes/12#setting49827
R: jig
M: 6/8
L: 1/8
K: Ador
|:(aaa) bag|eaf ged|{B}c2A BAG|EFG ABd|
eaa bag|eaf ged|c2A BAG|EFG A3:||
e2e dBA|ege dBA|G2B dBA|GAB d_d=d|
eee dBA|ege dBA|GAB dBG|BAA A2A|
e/f/ge dBA|e=fe dBA|G2B dBA|GAB d3|
eee dee|cee Bee|EFG AGE|DB,D A,2A,||

